assets/svg/logos/logo-white.svg

<?xml version="1.0" encoding="utf-8"?>
<!-- Generator: Adobe Illustrator 23.0.3, SVG Export Plug-In . SVG Version: 6.00 Build 0)  -->
<svg version="1.1" id="Layer_1" xmlns="http://www.w3.org/2000/svg" xmlns:xlink="http://www.w3.org/1999/xlink" x="0px" y="0px"
	 viewBox="0 0 154.9 46.1" style="enable-background:new 0 0 154.9 46.1;" xml:space="preserve">
<style type="text/css">
	.st0{fill:#FFFFFF;}
	.st1{opacity:0.65;fill:#E1E4EA;enable-background:new    ;}
	.st2{opacity:0.5;fill:#FFFFFF;enable-background:new    ;}
	.st3{opacity:0.7;fill:#FFFFFF;enable-background:new    ;}
	.st4{fill:#377DFF;}
</style>
<path class="st0" d="M58.9,38.2V10h17.9v5.2H65.6v6.1H74v5.2h-8.4v11.7H58.9z"/>
<path class="st0" d="M86.2,15.8V20c1.6-2.9,3.7-4.4,6.3-4.4v7h-1.6c-1.5,0-2.7,0.4-3.5,1.1c-0.8,0.8-1.2,2.1-1.2,3.9v10.6h-6.7V15.8
	H86.2z"/>
<path class="st0" d="M95.9,35.3c-2.2-2.1-3.3-4.9-3.3-8.4c0-3.5,1.1-6.2,3.3-8.3c2.2-2.1,4.9-3.1,8.1-3.1s5.9,1,8.1,3.1
	s3.3,4.8,3.3,8.3s-1.1,6.2-3.3,8.4s-4.9,3.2-8.1,3.2S98.1,37.4,95.9,35.3z M107.3,31.2c0.9-1,1.3-2.4,1.3-4.2s-0.5-3.2-1.4-4.2
	s-2-1.4-3.3-1.4s-2.3,0.5-3.2,1.4c-0.9,1-1.4,2.3-1.4,4.2s0.5,3.2,1.4,4.2s2,1.4,3.3,1.4S106.4,32.1,107.3,31.2z"/>
<path class="st0" d="M124.5,15.8v3.3c1.4-2.4,3.6-3.5,6.6-3.5c2.5,0,4.5,0.9,6.1,2.6s2.3,4,2.3,7v13.1h-6.7V26
	c0-1.4-0.4-2.6-1.1-3.4c-0.7-0.8-1.8-1.2-3.1-1.2s-2.3,0.4-3.1,1.2c-0.7,0.8-1.1,1.9-1.1,3.4v12.2h-6.7V15.8H124.5z"/>
<path class="st0" d="M152.5,32.4h2.4v5.8h-3.4c-2.5,0-4.4-0.6-5.7-1.7c-1.3-1.1-2-3-2-5.7v-9.3h-2v-5.7h2v-5.5h6.7v5.5h4.4v5.7h-4.4
	v9.3C150.5,31.8,151.2,32.4,152.5,32.4z"/>
<path class="st1" d="M23,41.1L23,41.1c-9.9,0-18-8-18-18l0,0c0-9.9,8-18,18-18h11.3c3.7,0,6.6,3,6.6,6.6v11.4
	C41,33,32.9,41.1,23,41.1z"/>
<path class="st2" d="M28,36L28,36c-9.9,0-18-8-18-18l0,0c0-9.9,8-18,18-18h11.3C43,0.1,46,3.1,46,6.7v11.4C46,28,38,36,28,36z"/>
<path class="st3" d="M18,46.1L18,46.1c-10,0-18-8-18-18l0,0c0-9.9,8-18,18-18h11.3c3.7,0,6.6,3,6.6,6.6v11.4
	C35.9,38.1,27.9,46.1,18,46.1z"/>
<path class="st4" d="M17.4,34.1V18.4h10.2v2.9h-6.4v3.4H26v2.9h-4.8v6.5H17.4z"/>
</svg>

<svg width="155" height="47" viewBox="0 0 155 47" fill="none" xmlns="http://www.w3.org/2000/svg">
<g clip-path="url(#clip0)">
<path d="M58.8999 38.2V10H76.7999V15.2H65.5999V21.3H73.9999V26.5H65.5999V38.2H58.8999V38.2Z" fill="white"/>
<path d="M86.2 15.8V20C87.8 17.1 89.9 15.6 92.5 15.6V22.6H90.9C89.4 22.6 88.2 23 87.4 23.7C86.6 24.5 86.2 25.8 86.2 27.6V38.2H79.5V15.8H86.2Z" fill="white"/>
<path d="M95.9001 35.3C93.7001 33.2 92.6001 30.4 92.6001 26.9C92.6001 23.4 93.7001 20.7 95.9001 18.6C98.1001 16.5 100.8 15.5 104 15.5C107.2 15.5 109.9 16.5 112.1 18.6C114.3 20.7 115.4 23.4 115.4 26.9C115.4 30.4 114.3 33.1 112.1 35.3C109.9 37.5 107.2 38.5 104 38.5C100.8 38.5 98.1001 37.4 95.9001 35.3ZM107.3 31.2C108.2 30.2 108.6 28.8 108.6 27C108.6 25.2 108.1 23.8 107.2 22.8C106.3 21.8 105.2 21.4 103.9 21.4C102.6 21.4 101.6 21.9 100.7 22.8C99.8001 23.8 99.3001 25.1 99.3001 27C99.3001 28.9 99.8001 30.2 100.7 31.2C101.6 32.2 102.7 32.6 104 32.6C105.3 32.6 106.4 32.1 107.3 31.2Z" fill="white"/>
<path d="M124.5 15.8V19.1C125.9 16.7 128.1 15.6 131.1 15.6C133.6 15.6 135.6 16.5 137.2 18.2C138.8 19.9 139.5 22.2 139.5 25.2V38.3H132.8V26C132.8 24.6 132.4 23.4 131.7 22.6C131 21.8 129.9 21.4 128.6 21.4C127.3 21.4 126.3 21.8 125.5 22.6C124.8 23.4 124.4 24.5 124.4 26V38.2H117.7V15.8H124.5Z" fill="white"/>
<path d="M152.5 32.4H154.9V38.2H151.5C149 38.2 147.1 37.6 145.8 36.5C144.5 35.4 143.8 33.5 143.8 30.8V21.5H141.8V15.8H143.8V10.3H150.5V15.8H154.9V21.5H150.5V30.8C150.5 31.8 151.2 32.4 152.5 32.4Z" fill="white"/>
<path opacity="0.65" d="M23 41.1C13.1 41.1 5 33.1 5 23.1C5 13.2 13 5.09998 23 5.09998H34.3C38 5.09998 40.9 8.09998 40.9 11.7V23.1C41 33 32.9 41.1 23 41.1Z" fill="#E1E4EA"/>
<path opacity="0.5" d="M28 36C18.1 36 10 28 10 18C10 8.1 18 0 28 0H39.3C43 0.1 46 3.1 46 6.7V18.1C46 28 38 36 28 36Z" fill="white"/>
<path opacity="0.7" d="M18 46.1C8 46.1 0 38.1 0 28.1C0 18.2 8 10.1 18 10.1H29.3C33 10.1 35.9 13.1 35.9 16.7V28.1C35.9 38.1 27.9 46.1 18 46.1Z" fill="white"/>
<path d="M17.3999 34.1V18.4H27.5999V21.3H21.1999V24.7H25.9999V27.6H21.1999V34.1H17.3999V34.1Z" fill="#377dff"/>
</g>
<defs>
<clipPath id="clip0">
<rect width="154.9" height="46.1" fill="white"/>
</clipPath>
</defs>
</svg>
